gama.ui.shared/icons_svg/dark/navigator/new.model2.svg

<svg height="25" viewBox="-238.997 -3555.419 25 25" width="25" xmlns="http://www.w3.org/2000/svg"><g fill="none"><path d="m-234.65697-3554.9187h16.32c2.12077 0 3.84 1.7192 3.84 3.84v16.32c0 2.1207-1.71923 3.84-3.84 3.84h-16.32c-2.12077 0-3.84-1.7193-3.84-3.84v-16.32c0-2.1208 1.71923-3.84 3.84-3.84z" fill="#666"/><path d="m-234.65697-3554.9187h16.32c2.12077 0 3.84 1.7192 3.84 3.84v16.32c0 2.1207-1.71923 3.84-3.84 3.84h-16.32c-2.12077 0-3.84-1.7193-3.84-3.84v-16.32c0-2.1208 1.71923-3.84 3.84-3.84z" stroke="#fff" stroke-linecap="round" stroke-linejoin="round" stroke-width=".25"/><path d="m-220.0977-3547.2957v10.3771c0 1.1046-.89537 1.9999-1.9999 1.9999h-8.79955c-1.10451 0-1.9999-.8953-1.9999-1.9999v-11.9994c0-1.1045.89539-2 1.9999-2h7.17725c.1062-.0066.21674.0288.30522.1173l3.19984 3.1997c.08848.0886.12389.199.11714.3053zm-3.9998-2.8223h-6.79965c-.6627 0-1.19995.5373-1.19995 1.2v11.9994c0 .6626.53725 1.1999 1.19995 1.1999h8.79955c.66272 0 1.19995-.5373 1.19995-1.1999v-9.9994h-2.79985c-.2209 0-.4-.179-.4-.4zm.79997.5657v1.8343h1.83423z" fill="#8eed62"/><path d="m-223.74345-3542.5253h-2.08481c-.15207 0-.27534.1233-.27534.2753v1.8095c0 .152-.12329.2755-.27536.2755h-.23601c-.15208 0-.27536-.1235-.27536-.2755v-1.8095c0-.152-.12327-.2753-.27535-.2753h-1.80945c-.15207 0-.27535-.1233-.27535-.2754v-.236c0-.1521.12328-.2753.27535-.2753h1.80945c.15208 0 .27535-.1233.27535-.2754v-1.8096c0-.152.12328-.2752.27536-.2752h.23601c.15207 0 .27536.1232.27536.2752v1.8096c0 .1521.12327.2754.27534.2754h1.80946c.15207 0 .27535.1232.27535.2753z" fill="#8eed62"/><path d="m-223.74345-3542.5253h-2.08481c-.15207 0-.27534.1233-.27534.2753v1.8095c0 .152-.12329.2755-.27536.2755h-.23601c-.15208 0-.27536-.1235-.27536-.2755v-1.8095c0-.152-.12327-.2753-.27535-.2753h-1.80945c-.15207 0-.27535-.1233-.27535-.2754v-.236c0-.1521.12328-.2753.27535-.2753h1.80945c.15208 0 .27535-.1233.27535-.2754v-1.8096c0-.152.12328-.2752.27536-.2752h.23601c.15207 0 .27536.1232.27536.2752v1.8096c0 .1521.12327.2754.27534.2754h1.80946c.15207 0 .27535.1232.27535.2753z"/></g></svg>

<?xml version="1.0" encoding="UTF-8" standalone="no"?>
<!DOCTYPE svg PUBLIC "-//W3C//DTD SVG 1.1//EN" "http://www.w3.org/Graphics/SVG/1.1/DTD/svg11.dtd">
<svg xmlns="http://www.w3.org/2000/svg" xmlns:xl="http://www.w3.org/1999/xlink" version="1.1" xmlns:dc="http://purl.org/dc/elements/1.1/" viewBox="-238.99697 -3555.4187 25 25" width="25" height="25">
  <defs/>
  <g id="SOURCES" stroke-opacity="1" fill="none" stroke="none" fill-opacity="1" stroke-dasharray="none">
    <title>SOURCES</title>
    <g id="SOURCES_Dark">
      <title>Dark</title>
      <g id="Graphic_11708">
        <title>views/view.other</title>
        <path d="M -234.65697 -3554.9187 L -218.33697 -3554.9187 C -216.2162 -3554.9187 -214.49697 -3553.1995 -214.49697 -3551.0787 L -214.49697 -3534.7587 C -214.49697 -3532.638 -216.2162 -3530.9187 -218.33697 -3530.9187 L -234.65697 -3530.9187 C -236.77774 -3530.9187 -238.49697 -3532.638 -238.49697 -3534.7587 L -238.49697 -3551.0787 C -238.49697 -3553.1995 -236.77774 -3554.9187 -234.65697 -3554.9187 Z" fill="#666"/>
        <path d="M -234.65697 -3554.9187 L -218.33697 -3554.9187 C -216.2162 -3554.9187 -214.49697 -3553.1995 -214.49697 -3551.0787 L -214.49697 -3534.7587 C -214.49697 -3532.638 -216.2162 -3530.9187 -218.33697 -3530.9187 L -234.65697 -3530.9187 C -236.77774 -3530.9187 -238.49697 -3532.638 -238.49697 -3534.7587 L -238.49697 -3551.0787 C -238.49697 -3553.1995 -236.77774 -3554.9187 -234.65697 -3554.9187 Z" stroke="white" stroke-linecap="round" stroke-linejoin="round" stroke-width=".25"/>
      </g>
      <g id="Graphic_11707">
        <path d="M -220.0977 -3547.2957 L -220.0977 -3536.9186 C -220.0977 -3535.814 -220.99307 -3534.9187 -222.0976 -3534.9187 L -230.89715 -3534.9187 C -232.00166 -3534.9187 -232.89705 -3535.814 -232.89705 -3536.9186 L -232.89705 -3548.918 C -232.89705 -3550.0225 -232.00166 -3550.918 -230.89715 -3550.918 L -223.7199 -3550.918 C -223.6137 -3550.9246 -223.50316 -3550.8892 -223.41468 -3550.8007 L -220.21484 -3547.601 C -220.12636 -3547.5124 -220.09095 -3547.402 -220.0977 -3547.2957 Z M -224.0975 -3550.118 L -230.89715 -3550.118 C -231.55985 -3550.118 -232.0971 -3549.5807 -232.0971 -3548.918 L -232.0971 -3536.9186 C -232.0971 -3536.256 -231.55985 -3535.7187 -230.89715 -3535.7187 L -222.0976 -3535.7187 C -221.43488 -3535.7187 -220.89765 -3536.256 -220.89765 -3536.9186 L -220.89765 -3546.918 L -223.6975 -3546.918 C -223.9184 -3546.918 -224.0975 -3547.097 -224.0975 -3547.318 Z M -223.29753 -3549.5523 L -223.29753 -3547.718 L -221.4633 -3547.718 Z" fill="#8eed62"/>
      </g>
      <g id="Graphic_11706">
        <path d="M -223.74345 -3542.5253 L -225.82826 -3542.5253 C -225.98033 -3542.5253 -226.1036 -3542.402 -226.1036 -3542.25 L -226.1036 -3540.4405 C -226.1036 -3540.2885 -226.22689 -3540.165 -226.37896 -3540.165 L -226.61497 -3540.165 C -226.76705 -3540.165 -226.89033 -3540.2885 -226.89033 -3540.4405 L -226.89033 -3542.25 C -226.89033 -3542.402 -227.0136 -3542.5253 -227.16568 -3542.5253 L -228.97513 -3542.5253 C -229.1272 -3542.5253 -229.25048 -3542.6486 -229.25048 -3542.8007 L -229.25048 -3543.0367 C -229.25048 -3543.1888 -229.1272 -3543.312 -228.97513 -3543.312 L -227.16568 -3543.312 C -227.0136 -3543.312 -226.89033 -3543.4353 -226.89033 -3543.5874 L -226.89033 -3545.397 C -226.89033 -3545.549 -226.76705 -3545.6722 -226.61497 -3545.6722 L -226.37896 -3545.6722 C -226.22689 -3545.6722 -226.1036 -3545.549 -226.1036 -3545.397 L -226.1036 -3543.5874 C -226.1036 -3543.4353 -225.98033 -3543.312 -225.82826 -3543.312 L -224.0188 -3543.312 C -223.86673 -3543.312 -223.74345 -3543.1888 -223.74345 -3543.0367 L -223.74345 -3542.5253 Z" fill="#8eed62"/>
        <path d="M -223.74345 -3542.5253 L -225.82826 -3542.5253 C -225.98033 -3542.5253 -226.1036 -3542.402 -226.1036 -3542.25 L -226.1036 -3540.4405 C -226.1036 -3540.2885 -226.22689 -3540.165 -226.37896 -3540.165 L -226.61497 -3540.165 C -226.76705 -3540.165 -226.89033 -3540.2885 -226.89033 -3540.4405 L -226.89033 -3542.25 C -226.89033 -3542.402 -227.0136 -3542.5253 -227.16568 -3542.5253 L -228.97513 -3542.5253 C -229.1272 -3542.5253 -229.25048 -3542.6486 -229.25048 -3542.8007 L -229.25048 -3543.0367 C -229.25048 -3543.1888 -229.1272 -3543.312 -228.97513 -3543.312 L -227.16568 -3543.312 C -227.0136 -3543.312 -226.89033 -3543.4353 -226.89033 -3543.5874 L -226.89033 -3545.397 C -226.89033 -3545.549 -226.76705 -3545.6722 -226.61497 -3545.6722 L -226.37896 -3545.6722 C -226.22689 -3545.6722 -226.1036 -3545.549 -226.1036 -3545.397 L -226.1036 -3543.5874 C -226.1036 -3543.4353 -225.98033 -3543.312 -225.82826 -3543.312 L -224.0188 -3543.312 C -223.86673 -3543.312 -223.74345 -3543.1888 -223.74345 -3543.0367 L -223.74345 -3542.5253 Z" stroke="#518737" stroke-linecap="round" stroke-linejoin="round" stroke-width="0"/>
      </g>
    </g>
  </g>
</svg>
